X: 3403
T: HERE'S TO THE MAIDEN
%R: jig
B: James Kerr "Merry Melodies" v.3 p.44 #403
Z: 2016 John Chambers <jc:trillian.mit.edu>
M: 6/8
L: 1/8
K: G
uG |\
GAG gfg | ede d3B | GAG gfg | e3 d2B |\
GAG gfg | ede d2B | cec BdB | A3 G2 ::\
c |\
Bcd d2d | dcB A2c | Bcd ded | cBA G2 :|

%%sep 1 1 500
%%sep 1 1 500

